X: 1
T: Aith Rant
M: 6/8
L: 1/8
R: jig
K: Gmaj
|: BcB BcB | BcB AGA | BcB AzB | cBA AGA |
BcB BcB | Bcd ~e3 | dcB Azd |1 cBA ~G3 :|2 cBA GBd ||
|: ~gzd zcB | ~gzd zcB | ~gzB BAG | ABA AB/c/d |
~gzg fge | ded dcB | cde dcB |1 ABA GBd :|2 ABA ~G3 ||
